assets/Crocodile/Flat/crocodile_flat.svg

<svg width="32" height="32" viewBox="0 0 32 32" fill="none" xmlns="http://www.w3.org/2000/svg">
<path d="M10.8984 4.03125C12.5802 2.50782 14.5645 2.21094 16.7891 2.21094C20.569 2.26376 23.8674 4.54525 25.2742 7.84378L25.6094 7.8438C26.2109 7.8438 27 8.74997 27 8.74997L29.3828 11.0313C29.9428 11.5913 30.0625 12.2656 30.0625 13.1719V15.2578C30.0625 15.5378 29.9805 15.9219 29.5508 15.9219C29.0898 15.9219 29.0637 15.5003 29.0476 15.2424C29.0406 15.1287 29.0355 15.0469 28.9961 15.0469C28.9557 15.0469 28.9529 15.1326 28.949 15.2504C28.9404 15.5089 28.9267 15.9219 28.5 15.9219C27.988 15.9219 27.9696 15.4779 27.959 15.2224C27.9547 15.1193 27.9517 15.0469 27.918 15.0469C27.8822 15.0469 27.877 15.1257 27.8697 15.2352C27.8532 15.4849 27.826 15.8946 27.4023 15.8946C26.971 15.8946 26.8828 15.5078 26.8828 15.2578V13.4141C26.8828 12.9307 26.4571 12.7837 25.9983 12.7673V20.46C25.9983 21.3222 25.8796 22.1764 25.6506 23H28.4383C29.2983 23 29.9983 23.7 29.9983 24.56V27.5C29.9983 27.7617 29.8125 27.9258 29.4983 27.9258C29.0855 27.9258 29.0585 27.534 29.0407 27.2759C29.032 27.1492 29.0254 27.0547 28.9766 27.0547C28.927 27.0547 28.9218 27.1519 28.915 27.2814C28.9014 27.5395 28.8811 27.9258 28.4883 27.9258C28.0442 27.9258 28.0261 27.5316 28.0143 27.2735C28.0085 27.148 28.0043 27.0547 27.9531 27.0547C27.9018 27.0547 27.8994 27.1487 27.8961 27.275C27.8895 27.5331 27.8794 27.9258 27.4414 27.9258C27.1614 27.9258 26.9983 27.78 26.9983 27.5V26.1875C26.9983 26.0475 26.8883 25.9375 26.7483 25.9375H24.2631C22.4889 28.4607 19.5916 29.9688 16.4688 29.9688H10.1723C8.82812 29.9688 7.93188 29.3337 7.92188 28.3438C7.91188 27.6038 8.71875 26.8906 9.23438 26.5938C9.75 26.2969 11.5658 25.3809 11.5658 25.3809C11.6358 25.3509 11.6758 25.2909 11.6758 25.2109C11.6758 24.6133 12.2695 23.918 13.0469 23.918C13.4297 23.918 13.6836 23.9766 13.9167 24.1028C13.9767 24.1628 14.0667 24.1728 14.1367 24.1328C14.2268 24.0829 14.3177 24.0343 14.4086 23.9858C14.9731 23.6841 15.5313 23.3858 15.8242 22.8086C16.0842 22.2886 16.0859 21.71 16.0859 21.13L16.0867 21H14.2483C14.1083 21 13.9983 21.0358 13.9983 21.1758V22.4453C13.9983 22.7253 13.918 23 13.5586 23C13.1359 23 13.103 22.6102 13.0803 22.3419C13.0684 22.2011 13.0594 22.0938 12.9983 22.0938C12.9354 22.0938 12.9281 22.2077 12.9187 22.3548C12.9016 22.6226 12.8775 23 12.4983 23C12.0936 23 12.0836 22.6274 12.0764 22.36C12.0723 22.2104 12.0692 22.0938 11.9983 22.0938C11.9258 22.0938 11.9104 22.216 11.891 22.3708C11.8576 22.6373 11.8121 23 11.4414 23C11.1133 23 10.9983 22.7153 10.9983 22.4453V19.6562C10.9983 18.7962 11.8509 18.0391 12.7109 18.0391H16.1049L16.137 12.8125C15.2384 12.8162 15.2109 13.2528 15.2109 13.9141V15.3672C15.2109 15.5391 15.1758 15.8906 14.7266 15.8906C14.322 15.8906 14.2876 15.5153 14.2645 15.263C14.2528 15.1353 14.2439 15.0391 14.1914 15.0391C14.1405 15.0391 14.1369 15.1296 14.132 15.2515C14.1219 15.5038 14.1065 15.8906 13.6562 15.8906C13.2003 15.8906 13.1793 15.4939 13.166 15.2421C13.1598 15.1249 13.1553 15.0391 13.1094 15.0391C13.0635 15.0391 13.0589 15.1249 13.0527 15.2421C13.0394 15.4939 13.0184 15.8906 12.5625 15.8906C12.207 15.8906 12.0938 15.6372 12.0938 15.3672V12.2891C12.0938 11.6485 12.7641 10.9598 13.1797 10.5547C14.1377 9.62077 15.5232 8.31509 16.107 7.76659C15.91 7.26688 15.4756 6.95324 14.6094 7.125C13.9575 7.25426 13.3547 7.64449 12.6804 8.08104C11.9852 8.53112 11.214 9.03044 10.2344 9.34375C8.3047 9.96094 6.00001 10.3984 3.16407 8.5625C2.69151 8.25658 2.05783 7.7319 2.23439 7.39844C2.39519 7.09472 2.67889 7.09798 2.93978 7.10098C2.96533 7.10127 2.99066 7.10156 3.01564 7.10156C3.01564 7.10156 4.66407 7.14844 5.25001 7.10156C6.97583 6.9635 8.49219 6.21094 10.8984 4.03125Z" fill="#00D26A"/>
<path d="M16.5 26C16.7761 26 17 25.7761 17 25.5C17 25.2239 16.7761 25 16.5 25C16.2239 25 16 25.2239 16 25.5C16 25.7761 16.2239 26 16.5 26Z" fill="#1C1C1C"/>
<path d="M20.5286 10.205C20.5286 10.475 20.7486 10.695 21.0186 10.695C21.2986 10.695 21.5186 10.465 21.5086 10.195V9.14503C21.5086 8.87503 21.2886 8.65503 21.0186 8.65503C20.7486 8.65503 20.5286 8.87503 20.5286 9.14503V10.205Z" fill="#FCD53F"/>
<path d="M18.5921 10.2055C18.5921 10.4755 18.8121 10.6955 19.0821 10.6955C19.3621 10.6955 19.5821 10.4655 19.5721 10.1955V9.14552C19.5721 8.87552 19.3521 8.65552 19.0821 8.65552C18.8121 8.65552 18.5921 8.87552 18.5921 9.14552V10.2055Z" fill="#FCD53F"/>
<path d="M19.0821 13.7527C18.8121 13.7527 18.5921 13.5327 18.5921 13.2627V12.2127C18.5921 11.9427 18.8121 11.7227 19.0821 11.7227C19.3521 11.7227 19.5721 11.9427 19.5721 12.2127V13.2627C19.5821 13.5327 19.3621 13.7527 19.0821 13.7527Z" fill="#FCD53F"/>
<path d="M18.5921 16.32C18.5921 16.59 18.8121 16.81 19.0821 16.81C19.3621 16.81 19.5821 16.59 19.5721 16.32V15.27C19.5721 15 19.3521 14.78 19.0821 14.78C18.8121 14.78 18.5921 15 18.5921 15.27V16.32Z" fill="#FCD53F"/>
<path d="M18.5921 19.3772C18.5921 19.6472 18.8121 19.8672 19.0821 19.8672C19.3621 19.8672 19.5821 19.6472 19.5721 19.3772V18.3272C19.5721 18.0572 19.3521 17.8372 19.0821 17.8372C18.8121 17.8372 18.5921 18.0572 18.5921 18.3272V19.3772Z" fill="#FCD53F"/>
<path d="M21.0186 19.8672C20.7486 19.8672 20.5286 19.6472 20.5286 19.3772V18.3272C20.5286 18.0572 20.7486 17.8372 21.0186 17.8372C21.2886 17.8372 21.5086 18.0572 21.5086 18.3272V19.3772C21.5186 19.6472 21.2986 19.8672 21.0186 19.8672Z" fill="#FCD53F"/>
<path d="M20.5286 16.32C20.5286 16.59 20.7486 16.81 21.0186 16.81C21.2986 16.81 21.5186 16.59 21.5086 16.32V15.27C21.5086 15 21.2886 14.78 21.0186 14.78C20.7486 14.78 20.5286 15 20.5286 15.27V16.32Z" fill="#FCD53F"/>
<path d="M21.0186 13.7527C20.7486 13.7527 20.5286 13.5327 20.5286 13.2627V12.2127C20.5286 11.9427 20.7486 11.7227 21.0186 11.7227C21.2886 11.7227 21.5086 11.9427 21.5086 12.2127V13.2627C21.5186 13.5327 21.2986 13.7527 21.0186 13.7527Z" fill="#FCD53F"/>
<path d="M22.955 19.8672C22.685 19.8672 22.465 19.6472 22.465 19.3772V18.3272C22.465 18.0572 22.685 17.8372 22.955 17.8372C23.225 17.8372 23.445 18.0572 23.445 18.3272V19.3772C23.445 19.6472 23.225 19.8672 22.955 19.8672Z" fill="#FCD53F"/>
<path d="M22.465 16.3564C22.465 16.6264 22.685 16.8464 22.955 16.8464C23.225 16.8464 23.445 16.6264 23.445 16.3564V15.3064C23.445 15.0364 23.225 14.8164 22.955 14.8164C22.685 14.8164 22.465 15.0364 22.465 15.3064V16.3564Z" fill="#FCD53F"/>
<path d="M22.955 13.7527C22.685 13.7527 22.465 13.5327 22.465 13.2627V12.2127C22.465 11.9427 22.685 11.7227 22.955 11.7227C23.225 11.7227 23.445 11.9427 23.445 12.2127V13.2627C23.445 13.5327 23.225 13.7527 22.955 13.7527Z" fill="#FCD53F"/>
<path d="M22.465 10.205C22.465 10.475 22.685 10.695 22.955 10.695C23.225 10.695 23.445 10.465 23.445 10.195V9.14503C23.445 8.87503 23.225 8.65503 22.955 8.65503C22.685 8.65503 22.465 8.87503 22.465 9.14503V10.205Z" fill="#FCD53F"/>
<path d="M9.99832 28.5C9.99832 28.7761 9.77446 29 9.49832 29C9.22218 29 8.99832 28.7761 8.99832 28.5C8.99832 28.2239 9.22218 28 9.49832 28C9.77446 28 9.99832 28.2239 9.99832 28.5Z" fill="#008463"/>
<path d="M12 28.5C12 28.7761 11.7761 29 11.5 29C11.2239 29 11 28.7761 11 28.5C11 28.2239 11.2239 28 11.5 28C11.7761 28 12 28.2239 12 28.5Z" fill="#008463"/>
</svg>

<svg xmlns="http://www.w3.org/2000/svg" width="32" height="32" fill="none"><path fill="#00D26A" d="M10.898 4.031c1.682-1.523 3.667-1.82 5.891-1.82 3.78.053 7.078 2.334 8.485 5.633h.335c.602 0 1.391.906 1.391.906l2.383 2.281c.56.56.68 1.235.68 2.14v2.087c0 .28-.082.664-.512.664-.461 0-.487-.422-.503-.68-.007-.113-.012-.195-.052-.195-.04 0-.043.086-.047.203-.009.259-.022.672-.449.672-.512 0-.53-.444-.541-.7-.004-.103-.007-.175-.041-.175-.036 0-.041.079-.048.188-.017.25-.044.66-.468.66-.431 0-.52-.387-.52-.637v-1.844c0-.483-.425-.63-.884-.647v7.693c0 .862-.118 1.716-.347 2.54h2.787c.86 0 1.56.7 1.56 1.56v2.94c0 .262-.186.426-.5.426-.413 0-.44-.392-.457-.65-.009-.127-.016-.221-.064-.221-.05 0-.055.097-.062.226-.014.259-.034.645-.427.645-.444 0-.462-.394-.474-.652-.005-.126-.01-.22-.06-.22-.052 0-.055.095-.058.221-.006.258-.017.65-.455.65-.28 0-.443-.145-.443-.425v-1.313c0-.14-.11-.25-.25-.25h-2.485a9.509 9.509 0 0 1-7.794 4.032h-6.297c-1.344 0-2.24-.635-2.25-1.625-.01-.74.797-1.453 1.312-1.75.516-.297 2.332-1.213 2.332-1.213.07-.03.11-.09.11-.17 0-.598.594-1.293 1.37-1.293.384 0 .638.059.87.185.06.06.15.07.22.03.09-.05.182-.099.273-.147.564-.302 1.122-.6 1.415-1.177.26-.52.262-1.099.262-1.679V21h-1.838c-.14 0-.25.036-.25.176v1.27c0 .28-.08.554-.44.554-.422 0-.455-.39-.478-.658-.012-.14-.02-.248-.082-.248-.063 0-.07.114-.08.26-.016.269-.04.646-.42.646-.404 0-.414-.373-.422-.64-.004-.15-.007-.266-.078-.266-.072 0-.088.122-.107.277-.033.266-.079.629-.45.629-.328 0-.443-.285-.443-.555v-2.789c0-.86.853-1.617 1.713-1.617h3.394l.032-5.227c-.899.004-.926.44-.926 1.102v1.453c0 .172-.035.524-.484.524-.405 0-.44-.376-.463-.628-.011-.128-.02-.224-.073-.224-.05 0-.054.09-.059.213-.01.252-.025.639-.476.639-.456 0-.477-.397-.49-.649-.006-.117-.01-.203-.057-.203-.046 0-.05.086-.056.203-.014.252-.035.649-.49.649-.356 0-.47-.254-.47-.524V12.29c0-.64.671-1.33 1.087-1.734.958-.934 2.343-2.24 2.927-2.788-.197-.5-.631-.814-1.498-.642-.652.13-1.254.52-1.929.956-.695.45-1.466.95-2.446 1.263-1.93.617-4.234 1.054-7.07-.781-.472-.306-1.106-.831-.93-1.165.161-.303.445-.3.706-.297h.076s1.648.047 2.234 0c1.726-.138 3.242-.89 5.648-3.07Z"/><path fill="#1C1C1C" d="M16.5 26a.5.5 0 1 0 0-1 .5.5 0 0 0 0 1Z"/><path fill="#FCD53F" d="M20.529 10.205a.49.49 0 1 0 .98-.01v-1.05a.49.49 0 0 0-.98 0v1.06ZM18.592 10.206a.49.49 0 1 0 .98-.01v-1.05a.49.49 0 0 0-.98 0v1.06ZM19.082 13.753a.49.49 0 0 1-.49-.49v-1.05a.49.49 0 0 1 .98 0v1.05c.01.27-.21.49-.49.49ZM18.592 16.32c0 .27.22.49.49.49.28 0 .5-.22.49-.49v-1.05a.49.49 0 0 0-.98 0v1.05ZM18.592 19.377c0 .27.22.49.49.49.28 0 .5-.22.49-.49v-1.05a.49.49 0 0 0-.98 0v1.05ZM21.019 19.867a.49.49 0 0 1-.49-.49v-1.05a.49.49 0 0 1 .98 0v1.05c.01.27-.21.49-.49.49ZM20.529 16.32c0 .27.22.49.49.49.28 0 .5-.22.49-.49v-1.05a.49.49 0 0 0-.98 0v1.05ZM21.019 13.753a.49.49 0 0 1-.49-.49v-1.05a.49.49 0 0 1 .98 0v1.05c.01.27-.21.49-.49.49ZM22.955 19.867a.49.49 0 0 1-.49-.49v-1.05a.49.49 0 0 1 .98 0v1.05c0 .27-.22.49-.49.49ZM22.465 16.356a.49.49 0 0 0 .98 0v-1.05a.49.49 0 0 0-.98 0v1.05ZM22.955 13.753a.49.49 0 0 1-.49-.49v-1.05a.49.49 0 0 1 .98 0v1.05c0 .27-.22.49-.49.49ZM22.465 10.205c0 .27.22.49.49.49a.5.5 0 0 0 .49-.5v-1.05a.49.49 0 0 0-.98 0v1.06Z"/><path fill="#008463" d="M9.998 28.5a.5.5 0 1 1-1 0 .5.5 0 0 1 1 0ZM12 28.5a.5.5 0 1 1-1 0 .5.5 0 0 1 1 0Z"/></svg>
